X: 1
T: Rock That Cradle Joe
C: (composer unknown)
R: reel
Z: 2020 John Chambers <jc:trillian.mit.edu>
S: https://www.facebook.com/groups/Fiddletuneoftheday/
M: 4/4
L: C
K: D
|: fg |\
"D"a2a2 f2fg | a2a2 f2fg | a2a2 fed2 | f6 g2 |\
f2e2 d2g2 |
f2e2 d2ef | "G"gfed "A"cABc | "D"d6 :: "G"d2 |\
"A"c3d e2c2 | "D"d2e2 f2ef |
"G"g2gf "A7"ga3 | "D"f4 f4 |\
"A"c3d e2c2 | "D"d2e2 f2ef | "G"gfed "A"cABc | "D"d6 :|
